X: 16482
T: Haggis Hunter's
R: jig
M: 6/8
K: Dmajor
|:A|d2Ad2A|GFE D2A|Bcd AGF|G2EE2A|
d2Ad2A|GFE D2A|Bcd Adc|d3-d2:|
|:e|f2a agf|e2A Afe|d2B Bcd|c2A ABc|
d3A3|F3D3|GAB Adc|d2DD2:|

